X: 0
T: The First of June  [D]
N: Transposed to D
C: Anahata
N: melodeon.net theme of the month June 2010: write your own tune
S: Anahata <anahata@treewind.co.uk> 2012-5-31
M: 6/8
L: 1/8
K: Dmaj
e |\
f3 edc | Bcd A2F | GAB AFD | EFG A2d |
f3 edc | Bcd A2F | GAB AFD | GEC D2 :|
|: F |\
E2E EGB | e2d cBA | F2F FAd | f2e d2A |
BgB AfA | GeG F2d | fed e2c | ABc d2 :|

